X: 1886
T: Tûtî-i Mûcize Gûyem
C: Itrî
O: Turkey
F: http://compmusic.upf.edu/node/140
N: segah--yuruksemai--yuruksemai--tuti_i_mucize--itri
N: makam= segah
N: form= yuruksemai
N: usul= yuruksemai = 6/8
M: 6/8
L: 1/16
K: C _1/4B _1/4e ^f 
Q: 1/4=102
%%MIDI tuningsystem comma53
B8 e4d4 c6B2  | B4{c}B2^A2 G4A4 B8  | \
w:  (Ah)  tû tî  i   |  mû *  *  *  ci ze  gû  | 
z4A4 _2/4B4c4 d8  | d8 c4e4 dcded2c2  | 
w:  yem  ne  de sem   |  laf  *  de ğil    | 
B8 e4d4 c6B2  | B4{c}B2^A2 G4A4 B8  | \
w:  (Ah)  tû tî  i   |  mû *  *  *  ci ze  gû  | 
z4A4 _2/4B4c4 d8  | d8 c4e4 dcded2c2  | 
w:  yem  ne  de sem   |  laf  *  de ğil    | 
B8 e4d4 c6B2  | B4{c}B2^A2 G4A4 B8  | \
w:  *  Be li  yâ  |  rim  *  *  *  be li  dost    | 
z8 e4d4 c6B2  | B4{c}B2^A2 G4A4 B8  | 
w:  Be li  mî  |  rim  *  *  *  be li  dost    | 
z8 d2c2B2c2 d8  | d8 d2c2c2B2 e8  | e4{=f}e2d2 d4{e}d2c2 c4{d}c2B2  | 
w:  Be *  li  *  öm  |  rüm  be *  li  *  dost    |   | 
B16 z8  | B8 e4d4 c6B2  | B4{c}B2^A2 G4A4 B8  | \
w:   |  (Ah)  tû tî  i   |  mû *  *  *  ci ze  gû  | 
z4A4 _2/4B4c4 d8  | d8 c4e4 dcded2c2  | 
w:  yem  ne  de sem   |  laf  *  de ğil    | 
B8 e4d4 c6B2  | B4{c}B2^A2 G4A4 B8  | \
w:  (Ah)  tû tî  i   |  mû *  *  *  ci ze  gû  | 
z4A4 _2/4B4c4 d8  | d8 c4e4 dcded2c2  | 
w:  yem  ne  de sem   |  laf  *  de ğil    | 
B8 e4d4 c6B2  | B4{c}B2^A2 G4A4 B8  | \
w:  *  Be li  yâ  |  rim  *  *  *  be li  dost    | 
z8 e4d4 c6B2  | B4{c}B2^A2 G4A4 B8  | 
w:  Be li  mî  |  rim  *  *  *  be li  dost    | 
z8 d2c2B2c2 d8  | d8 d2c2c2B2 e8  | e4{=f}e2d2 d4{e}d2c2 c4{d}c2B2  | 
w:  Be *  li  *  öm  |  rüm  be *  li  *  dost    |   | 
B16 z8  | f8 f4f4 f8  | f2g2f2e2 d4a4 g4=f4  | \
w:   |  (Ah)  ehl_ i  dil  |  dir  *  *  *  di ye mem   | 
e4d4 d4d4 a2g2=f2e2  | 
w:  *  sî ne si  saf   | 
e2d4c2 d2c2c2B2 B8  | f8 f4f4 f8  | f2g2f2e2 d4a4 g4=f4  | \
w:  ol *  *  ma *  ya *  na    |  (Ah)  ehl_ i  dil  |  dir  *  *  *  di ye mem   | 
e4d4 d4d4 a2g2=f2e2  | 
w:  *  sî ne si  saf   | 
e2d4c2 d2c2c2B2 B8  | f8 f4f4 f8  | f2g2f2e2 d4a4 g4=f4  | \
w:  ol *  *  ma *  ya *  na    |  Ah  be li  yâ  |  rim  *  *  *  be li  dost   | 
e4d4 d4d4 a2g2=f2e2  | 
w:  *  *  be li  mî  | 
e2d4c2 d2c2c2B2 B8  | z8 d2c2B2c2 d8  | \
w:  rim  *  *  be *  li  *  dost    |  Be *  li  *  öm  | 
d8 d2c2c2B2 e8  | e4{=f}e2d2 d4{e}d2c2 c4{d}c2B2  | 
w:  rüm  be *  li  *  dost    |   | 
B16 z8  | B8 e4d4 c6B2  | B4{c}B2^A2 G4A4 B8  | \
w:   |  (Ah)  ehl_ i  dil   |  bir *  *  *  bi ri ni   | 
z4A4 _2/4B4c4 d8  | d8 c4e4 d4{e}d2c2  | 
w:  bil me mek  in  |  saf  *  de ğil    | 
B8 e4d4 c6B2  | B4{c}B2^A2 G4A4 B8  | \
w:  (Ah)  ehl_ i  dil   |  bir *  *  *  bi ri ni   | 
z4A4 _2/4B4c4 d8  | d8 c4e4 d4{e}d2c2  | 
w:  bil me mek  in  |  saf  *  de ğil    | 
B8 e4d4 c6B2  | B4{c}B2^A2 G4A4 B8  | \
w:  *  Be li  yâ  |  rim  *  *  *  be li  dost    | 
z8 e4d4 c6B2  | B4{c}B2^A2 G4A4 B8  | 
w:  Be li  mî  |  rim  *  *  *  be li  dost    | 
z8 d2c2B2c2 d8  | d8 d2c2c2B2 e8  | e4{=f}e2d2 d4{e}d2c2 cBcdc2B2  | 
w:  Be *  li  *  öm  |  rüm  be *  li  *  dost    |   | 
B16 z8  | |


